; G-Code generated by Simplify3D(R) Version 3.0.2
; Sep 18, 2015 at 5:39:42 PM
; Settings Summary
;   processName,Process1
;   applyToModels,Snowboard Binding Forward Lean Block_fixed (1)
;   profileName,PrinterBot Simple Metal Custom (modified)
;   profileVersion,2015-05-01 08:00:00
;   baseProfile,Default (modified)
;   printMaterial,PLA
;   printQuality,Medium
;   printExtruders,
;   extruderName,Primary Extruder
;   extruderToolheadNumber,0
;   extruderDiameter,0.4
;   extruderAutoWidth,0
;   extruderWidth,0.4
;   extrusionMultiplier,1
;   extruderUseRetract,1
;   extruderRetractionDistance,1
;   extruderExtraRestartDistance,0
;   extruderRetractionZLift,0
;   extruderRetractionSpeed,1800
;   extruderUseCoasting,0
;   extruderCoastingDistance,0.2
;   extruderUseWipe,0
;   extruderWipeDistance,5
;   primaryExtruder,0
;   layerHeight,0.2
;   topSolidLayers,3
;   bottomSolidLayers,3
;   perimeterOutlines,2
;   printPerimetersInsideOut,1
;   startPointOption,2
;   startPointOriginX,0
;   startPointOriginY,0
;   startPointOriginZ,300
;   sequentialIslands,0
;   spiralVaseMode,0
;   firstLayerHeightPercentage,90
;   firstLayerWidthPercentage,100
;   firstLayerUnderspeed,0.5
;   useRaft,0
;   raftExtruder,0
;   raftLayers,3
;   raftOffset,3
;   raftSeparationDistance,0.14
;   raftInfill,85
;   disableRaftBaseLayers,0
;   useSkirt,1
;   skirtExtruder,0
;   skirtLayers,1
;   skirtOutlines,10
;   skirtOffset,0
;   usePrimePillar,0
;   primePillarExtruder,999
;   primePillarWidth,12
;   primePillarLocation,7
;   primePillarSpeedMultiplier,1
;   useOozeShield,0
;   oozeShieldExtruder,999
;   oozeShieldOffset,2
;   oozeShieldOutlines,1
;   oozeShieldSidewallShape,1
;   oozeShieldSidewallAngle,30
;   oozeShieldSpeedMultiplier,1
;   infillExtruder,0
;   internalInfillPattern,Rectilinear
;   externalInfillPattern,Rectilinear
;   infillPercentage,100
;   outlineOverlapPercentage,15
;   infillExtrusionWidthPercentage,100
;   minInfillLength,5
;   infillLayerInterval,1
;   infillAngles,45,-45
;   overlapInfillAngles,0
;   generateSupport,1
;   supportExtruder,0
;   supportInfillPercentage,30
;   supportExtraInflation,0
;   denseSupportLayers,0
;   denseSupportInfillPercentage,70
;   supportLayerInterval,1
;   supportHorizontalPartOffset,0.3
;   supportUpperSeparationLayers,1
;   supportLowerSeparationLayers,1
;   supportType,0
;   supportGridSpacing,4
;   maxOverhangAngle,45
;   supportAngles,0
;   temperatureName,Primary Extruder,Heated Bed
;   temperatureNumber,0,1
;   temperatureSetpointCount,2,3
;   temperatureSetpointLayers,1,2,1,2,3
;   temperatureSetpointTemperatures,210,200,70,65,63
;   temperatureStabilizeAtStartup,1,1
;   temperatureHeatedBed,0,1
;   temperatureRelayBetweenLayers,0,0
;   temperatureRelayBetweenLoops,0,0
;   fanLayers,1,2
;   fanSpeeds,0,100
;   blipFanToFullPower,1
;   adjustSpeedForCooling,1
;   minSpeedLayerTime,15
;   minCoolingSpeedSlowdown,20
;   increaseFanForCooling,0
;   minFanLayerTime,45
;   maxCoolingFanSpeed,100
;   increaseFanForBridging,0
;   bridgingFanSpeed,100
;   use5D,1
;   relativeEdistances,0
;   allowEaxisZeroing,1
;   independentExtruderAxes,0
;   includeM10123,0
;   stickySupport,1
;   applyToolheadOffsets,0
;   gcodeXoffset,0
;   gcodeYoffset,0
;   gcodeZoffset,0
;   overrideMachineDefinition,1
;   machineTypeOverride,0
;   strokeXoverride,150
;   strokeYoverride,150
;   strokeZoverride,150
;   originOffsetXoverride,0
;   originOffsetYoverride,0
;   originOffsetZoverride,0
;   homeXdirOverride,-1
;   homeYdirOverride,-1
;   homeZdirOverride,-1
;   flipXoverride,1
;   flipYoverride,-1
;   flipZoverride,1
;   toolheadOffsets,0,0|0,0|0,0|0,0|0,0|0,0
;   overrideFirmwareConfiguration,1
;   firmwareTypeOverride,RepRap (Marlin/Repetier/Sprinter)
;   GPXconfigOverride,r2
;   baudRateOverride,250000
;   overridePrinterModels,1
;   printerModelsOverride
;   startingGcode,G28 X0 Y0 ; home X and Y axes,G29 ; probe z
;   layerChangeGcode,
;   retractionGcode,
;   toolChangeGcode,
;   endingGcode,M104 S0 T0 ; turn off extruder,M140 S0 T1 ; turn off bed,G28 X0 Y0 ; home,M84 ; disable motors
;   createX3G,0
;   celebration,0
;   celebrationSong,Random Song
;   createMB5G,0
;   postProcessing,
;   defaultSpeed,2700
;   outlineUnderspeed,0.8
;   solidInfillUnderspeed,0.8
;   supportUnderspeed,0.8
;   rapidXYspeed,4200
;   rapidZspeed,1002
;   minBridgingArea,50
;   bridgingExtraInflation,0
;   bridgingExtrusionMultiplier,1
;   bridgingSpeedMultiplier,1
;   filamentDiameter,1.75
;   filamentPricePerKg,22
;   filamentDensity,1.25
;   useMinPrintHeight,0
;   minPrintHeight,0
;   useMaxPrintHeight,0
;   maxPrintHeight,0
;   useDiaphragm,0
;   diaphragmLayerInterval,20
;   robustSlicing,1
;   mergeAllIntoSolid,0
;   onlyRetractWhenCrossingOutline,1
;   retractBetweenLayers,1
;   useRetractionMinTravel,0
;   retractionMinTravel,3
;   retractWhileWiping,0
;   onlyWipeOutlines,1
;   avoidCrossingOutline,0
;   maxMovementDetourFactor,3
;   toolChangeRetractionDistance,12
;   toolChangeExtraRestartDistance,-0.5
;   toolChangeRetractionSpeed,600
;   allowThinWallGapFill,1
;   thinWallAllowedOverlapPercentage,10
;   horizontalSizeCompensation,0
G90
M82
M106 S0
M140 S70
M190 S70
M104 S210 T0
M109 S210 T0
G28 X0 Y0 ; home X and Y axes
G29 ; probe z
G92 E0
G1 E-1.0000 F1800
G1 Z0.180 F1002
; layer 1, Z = 0.18
T0
; tool H0.200 W0.400
; skirt
G1 X61.687 Y58.995 F4200
G1 E0.0000 F540
G92 E0
G1 X63.724 Y57.450 E0.0850 F1350
G1 X76.899 Y57.450 E0.5233
G1 X79.179 Y60.488 E0.6496
G1 X78.345 Y63.357 E0.7490
G1 X77.811 Y65.477 E0.8217
G1 X77.601 Y66.469 E0.8554
G1 X77.233 Y68.620 E0.9280
G1 X77.099 Y69.628 E0.9618
G1 X76.896 Y71.798 E1.0343
G1 X76.837 Y72.838 E1.0689
G1 X76.806 Y73.891 E1.1040
G1 X76.806 Y76.097 E1.1774
G1 X76.836 Y77.127 E1.2116
G1 X76.984 Y79.277 E1.2833
G1 X77.237 Y81.395 E1.3543
G1 X77.600 Y83.520 E1.4260
G1 X77.814 Y84.536 E1.4605
G1 X78.056 Y85.552 E1.4952
G1 X79.166 Y89.550 E1.6332
G1 X76.885 Y92.550 E1.7586
G1 X63.723 Y92.550 E2.1963
G1 X61.687 Y91.004 E2.2814
G1 X60.707 Y87.500 E2.4024
G1 X60.683 Y87.404 E2.4057
G1 X60.155 Y85.052 E2.4858
G1 X60.140 Y84.980 E2.4883
G1 X59.917 Y83.766 E2.5294
G1 X59.906 Y83.697 E2.5317
G1 X59.557 Y81.314 E2.6118
G1 X59.545 Y81.216 E2.6151
G1 X59.320 Y78.817 E2.6952
G1 X59.315 Y78.745 E2.6976
G1 X59.247 Y77.524 E2.7383
G1 X59.245 Y77.478 E2.7398
G1 X59.207 Y76.266 E2.7801
G1 X59.206 Y76.207 E2.7821
G1 X59.206 Y73.796 E2.8623
G1 X59.208 Y73.714 E2.8650
G1 X59.311 Y71.314 E2.9449
G1 X59.316 Y71.242 E2.9473
G1 X59.414 Y70.026 E2.9879
G1 X59.419 Y69.980 E2.9894
G1 X59.547 Y68.763 E3.0301
G1 X59.556 Y68.688 E3.0326
G1 X59.903 Y66.316 E3.1124
G1 X59.914 Y66.248 E3.1147
G1 X60.137 Y65.034 E3.1557
G1 X60.152 Y64.961 E3.1582
G1 X60.679 Y62.609 E3.2384
G1 X60.703 Y62.512 E3.2417
G1 X61.687 Y58.995 E3.3631
G1 X62.036 Y59.233 F4200
G92 E0
G1 X63.858 Y57.850 E0.0761 F1350
G1 X76.699 Y57.850 E0.5032
G1 X78.739 Y60.568 E0.6162
G1 X77.958 Y63.252 E0.7092
G1 X77.421 Y65.387 E0.7824
G1 X77.208 Y66.394 E0.8166
G1 X76.838 Y68.560 E0.8897
G1 X76.701 Y69.583 E0.9241
G1 X76.497 Y71.769 E0.9971
G1 X76.437 Y72.820 E1.0321
G1 X76.406 Y73.886 E1.0675
G1 X76.406 Y76.103 E1.1413
G1 X76.436 Y77.147 E1.1760
G1 X76.585 Y79.314 E1.2483
G1 X76.841 Y81.453 E1.3199
G1 X77.207 Y83.595 E1.3922
G1 X77.424 Y84.624 E1.4272
G1 X77.669 Y85.652 E1.4623
G1 X78.727 Y89.465 E1.5940
G1 X76.686 Y92.150 E1.7061
G1 X63.858 Y92.150 E2.1328
G1 X62.036 Y90.767 E2.2089
G1 X61.093 Y87.397 E2.3253
G1 X61.072 Y87.311 E2.3282
G1 X60.546 Y84.968 E2.4081
G1 X60.533 Y84.904 E2.4103
G1 X60.311 Y83.697 E2.4511
G1 X60.301 Y83.636 E2.4531
G1 X59.953 Y81.261 E2.5330
G1 X59.943 Y81.174 E2.5359
G1 X59.719 Y78.783 E2.6157
G1 X59.714 Y78.719 E2.6179
G1 X59.647 Y77.504 E2.6584
G1 X59.645 Y77.463 E2.6597
G1 X59.607 Y76.257 E2.6999
G1 X59.606 Y76.204 E2.7016
G1 X59.606 Y73.800 E2.7816
G1 X59.608 Y73.726 E2.7840
G1 X59.711 Y71.335 E2.8636
G1 X59.715 Y71.271 E2.8658
G1 X59.813 Y70.060 E2.9062
G1 X59.817 Y70.020 E2.9075
G1 X59.944 Y68.809 E2.9480
G1 X59.953 Y68.742 E2.9503
G1 X60.298 Y66.378 E3.0297
G1 X60.308 Y66.317 E3.0318
G1 X60.530 Y65.110 E3.0726
G1 X60.543 Y65.045 E3.0748
G1 X61.068 Y62.701 E3.1547
G1 X61.090 Y62.615 E3.1576
G1 X62.036 Y59.233 E3.2745
G1 X62.385 Y59.470 F4200
G92 E0
G1 X63.993 Y58.250 E0.0671 F1350
G1 X76.499 Y58.250 E0.4831
G1 X78.299 Y60.648 E0.5828
G1 X77.572 Y63.148 E0.6694
G1 X77.031 Y65.297 E0.7431
G1 X76.815 Y66.319 E0.7779
G1 X76.442 Y68.500 E0.8515
G1 X76.303 Y69.538 E0.8863
G1 X76.098 Y71.738 E0.9598
G1 X76.038 Y72.803 E0.9953
G1 X76.006 Y73.880 E1.0311
G1 X76.006 Y76.109 E1.1052
G1 X76.037 Y77.166 E1.1404
G1 X76.187 Y79.352 E1.2133
G1 X76.445 Y81.510 E1.2856
G1 X76.814 Y83.670 E1.3585
G1 X77.033 Y84.711 E1.3939
G1 X77.281 Y85.752 E1.4294
G1 X78.289 Y89.381 E1.5547
G1 X76.488 Y91.750 E1.6537
G1 X63.993 Y91.750 E2.0693
G1 X62.385 Y90.530 E2.1364
G1 X61.480 Y87.294 E2.2481
G1 X61.461 Y87.219 E2.2507
G1 X60.937 Y84.885 E2.3303
G1 X60.926 Y84.828 E2.3322
G1 X60.705 Y83.628 E2.3728
G1 X60.696 Y83.574 E2.3746
G1 X60.350 Y81.208 E2.4541
G1 X60.341 Y81.131 E2.4567
G1 X60.118 Y78.750 E2.5363
G1 X60.113 Y78.693 E2.5382
G1 X60.046 Y77.485 E2.5784
G1 X60.045 Y77.449 E2.5796
G1 X60.007 Y76.247 E2.6196
G1 X60.006 Y76.201 E2.6212
G1 X60.006 Y73.804 E2.7009
G1 X60.007 Y73.739 E2.7030
G1 X60.110 Y71.356 E2.7823
G1 X60.114 Y71.300 E2.7842
G1 X60.211 Y70.095 E2.8244
G1 X60.215 Y70.059 E2.8256
G1 X60.342 Y68.855 E2.8659
G1 X60.349 Y68.796 E2.8679
G1 X60.693 Y66.439 E2.9471
G1 X60.702 Y66.385 E2.9489
G1 X60.923 Y65.186 E2.9895
G1 X60.934 Y65.129 E2.9914
G1 X61.457 Y62.794 E3.0710
G1 X61.476 Y62.718 E3.0736
G1 X62.385 Y59.470 E3.1858
G1 X62.734 Y59.707 F4200
G92 E0
G1 X64.127 Y58.650 E0.0582 F1350
G1 X76.299 Y58.650 E0.4630
G1 X77.859 Y60.728 E0.5495
G1 X77.186 Y63.043 E0.6296
G1 X76.641 Y65.206 E0.7038
G1 X76.422 Y66.244 E0.7391
G1 X76.047 Y68.440 E0.8132
G1 X75.906 Y69.493 E0.8485
G1 X75.699 Y71.709 E0.9226
G1 X75.638 Y72.786 E0.9584
G1 X75.606 Y73.874 E0.9947
G1 X75.606 Y76.115 E1.0692
G1 X75.637 Y77.186 E1.1048
G1 X75.789 Y79.389 E1.1783
G1 X76.049 Y81.568 E1.2512
G1 X76.421 Y83.745 E1.3247
G1 X76.643 Y84.799 E1.3605
G1 X76.894 Y85.852 E1.3965
G1 X77.850 Y89.297 E1.5155
G1 X76.289 Y91.350 E1.6012
G1 X64.127 Y91.350 E2.0057
G1 X62.734 Y90.292 E2.0639
G1 X61.867 Y87.192 E2.1710
G1 X61.850 Y87.126 E2.1733
G1 X61.329 Y84.801 E2.2525
G1 X61.318 Y84.751 E2.2542
G1 X61.099 Y83.559 E2.2945
G1 X61.091 Y83.512 E2.2961
G1 X60.746 Y81.156 E2.3753
G1 X60.738 Y81.089 E2.3776
G1 X60.516 Y78.716 E2.4568
G1 X60.513 Y78.667 E2.4585
G1 X60.446 Y77.465 E2.4985
G1 X60.445 Y77.434 E2.4995
G1 X60.407 Y76.238 E2.5393
G1 X60.406 Y76.197 E2.5407
G1 X60.406 Y73.808 E2.6201
G1 X60.407 Y73.752 E2.6220
G1 X60.509 Y71.377 E2.7011
G1 X60.513 Y71.328 E2.7027
G1 X60.610 Y70.130 E2.7427
G1 X60.613 Y70.099 E2.7437
G1 X60.739 Y68.901 E2.7838
G1 X60.746 Y68.850 E2.7855
G1 X61.089 Y66.501 E2.8645
G1 X61.096 Y66.454 E2.8661
G1 X61.315 Y65.262 E2.9064
G1 X61.325 Y65.212 E2.9080
G1 X61.846 Y62.886 E2.9873
G1 X61.863 Y62.820 E2.9896
G1 X62.734 Y59.707 E3.0971
G1 X63.083 Y59.945 F4200
G92 E0
G1 X64.262 Y59.050 E0.0492 F1350
G1 X76.099 Y59.050 E0.4430
G1 X77.420 Y60.809 E0.5161
G1 X76.800 Y62.938 E0.5899
G1 X76.252 Y65.116 E0.6646
G1 X76.029 Y66.169 E0.7003
G1 X75.651 Y68.379 E0.7749
G1 X75.508 Y69.448 E0.8108
G1 X75.300 Y71.679 E0.8853
G1 X75.238 Y72.769 E0.9216
G1 X75.206 Y73.868 E0.9582
G1 X75.206 Y76.121 E1.0331
G1 X75.238 Y77.205 E1.0692
G1 X75.390 Y79.427 E1.1433
G1 X75.653 Y81.625 E1.2169
G1 X76.028 Y83.820 E1.2910
G1 X76.253 Y84.887 E1.3272
G1 X76.506 Y85.951 E1.3636
G1 X77.412 Y89.213 E1.4762
G1 X76.091 Y90.950 E1.5488
G1 X64.262 Y90.950 E1.9422
G1 X63.083 Y90.055 E1.9915
G1 X62.253 Y87.089 E2.0939
G1 X62.239 Y87.034 E2.0958
G1 X61.720 Y84.717 E2.1748
G1 X61.711 Y84.675 E2.1762
G1 X61.493 Y83.491 E2.2162
G1 X61.487 Y83.451 E2.2176
G1 X61.143 Y81.103 E2.2965
G1 X61.136 Y81.046 E2.2984
G1 X60.915 Y78.683 E2.3774
G1 X60.912 Y78.641 E2.3787
G1 X60.845 Y77.445 E2.4186
G1 X60.844 Y77.419 E2.4195
G1 X60.807 Y76.228 E2.4591
G1 X60.806 Y76.194 E2.4602
G1 X60.806 Y73.813 E2.5394
G1 X60.807 Y73.765 E2.5410
G1 X60.909 Y71.398 E2.6198
G1 X60.912 Y71.357 E2.6212
G1 X61.008 Y70.165 E2.6610
G1 X61.011 Y70.138 E2.6618
G1 X61.136 Y68.947 E2.7017
G1 X61.142 Y68.904 E2.7031
G1 X61.484 Y66.562 E2.7818
G1 X61.491 Y66.523 E2.7832
G1 X61.708 Y65.338 E2.8232
G1 X61.717 Y65.296 E2.8247
G1 X62.235 Y62.979 E2.9036
G1 X62.250 Y62.923 E2.9056
G1 X63.083 Y59.945 E3.0084
G1 X63.432 Y60.182 F4200
G92 E0
G1 X64.396 Y59.450 E0.0403 F1350
G1 X75.900 Y59.450 E0.4229
G1 X76.980 Y60.889 E0.4827
G1 X76.414 Y62.834 E0.5501
G1 X75.862 Y65.026 E0.6253
G1 X75.636 Y66.094 E0.6616
G1 X75.256 Y68.319 E0.7367
G1 X75.111 Y69.403 E0.7730
G1 X74.901 Y71.649 E0.8481
G1 X74.839 Y72.751 E0.8848
G1 X74.806 Y73.862 E0.9217
G1 X74.806 Y76.126 E0.9971
G1 X74.838 Y77.225 E1.0336
G1 X74.992 Y79.464 E1.1083
G1 X75.257 Y81.682 E1.1826
G1 X75.635 Y83.895 E1.2572
G1 X75.862 Y84.974 E1.2939
G1 X76.119 Y86.052 E1.3307
G1 X76.973 Y89.129 E1.4370
G1 X75.893 Y90.550 E1.4963
G1 X64.396 Y90.550 E1.8787
G1 X63.431 Y89.818 E1.9190
G1 X62.640 Y86.986 E2.0168
G1 X62.629 Y86.941 E2.0183
G1 X62.111 Y84.633 E2.0970
G1 X62.104 Y84.599 E2.0982
G1 X61.887 Y83.422 E2.1380
G1 X61.882 Y83.389 E2.1391
G1 X61.540 Y81.050 E2.2177
G1 X61.534 Y81.004 E2.2193
G1 X61.313 Y78.649 E2.2979
G1 X61.311 Y78.615 E2.2990
G1 X61.245 Y77.425 E2.3387
G1 X61.244 Y77.404 E2.3394
G1 X61.207 Y76.219 E2.3788
G1 X61.206 Y76.191 E2.3797
G1 X61.206 Y73.817 E2.4587
G1 X61.207 Y73.778 E2.4600
G1 X61.308 Y71.419 E2.5385
G1 X61.311 Y71.385 E2.5397
G1 X61.407 Y70.200 E2.5792
G1 X61.409 Y70.178 E2.5800
G1 X61.534 Y68.993 E2.6196
G1 X61.538 Y68.958 E2.6208
G1 X61.879 Y66.624 E2.6992
G1 X61.885 Y66.591 E2.7003
G1 X62.101 Y65.414 E2.7401
G1 X62.108 Y65.380 E2.7413
G1 X62.625 Y63.072 E2.8200
G1 X62.636 Y63.026 E2.8215
G1 X63.432 Y60.182 E2.9197
G1 X63.781 Y60.419 F4200
G92 E0
G1 X64.531 Y59.850 E0.0313 F1350
G1 X75.700 Y59.850 E0.4028
G1 X76.540 Y60.969 E0.4493
G1 X76.028 Y62.729 E0.5103
G1 X75.472 Y64.936 E0.5860
G1 X75.243 Y66.019 E0.6228
G1 X74.860 Y68.259 E0.6984
G1 X74.713 Y69.358 E0.7353
G1 X74.502 Y71.619 E0.8108
G1 X74.439 Y72.734 E0.8480
G1 X74.406 Y73.856 E0.8853
G1 X74.406 Y76.132 E0.9610
G1 X74.438 Y77.244 E0.9980
G1 X74.594 Y79.502 E1.0732
G1 X74.861 Y81.740 E1.1482
G1 X75.242 Y83.970 E1.2235
G1 X75.472 Y85.062 E1.2606
G1 X75.732 Y86.151 E1.2978
G1 X76.535 Y89.045 E1.3977
G1 X75.694 Y90.150 E1.4439
G1 X64.531 Y90.150 E1.8152
G1 X63.781 Y89.581 E1.8465
G1 X63.027 Y86.884 E1.9397
G1 X63.018 Y86.848 E1.9409
G1 X62.502 Y84.549 E2.0192
G1 X62.497 Y84.523 E2.0201
G1 X62.281 Y83.353 E2.0597
G1 X62.277 Y83.328 E2.0605
G1 X61.936 Y80.997 E2.1389
G1 X61.932 Y80.961 E2.1401
G1 X61.712 Y78.616 E2.2184
G1 X61.710 Y78.589 E2.2193
G1 X61.644 Y77.406 E2.2588
G1 X61.644 Y77.389 E2.2593
G1 X61.607 Y76.210 E2.2986
G1 X61.606 Y76.188 E2.2993
G1 X61.606 Y73.821 E2.3780
G1 X61.607 Y73.791 E2.3790
G1 X61.708 Y71.440 E2.4572
G1 X61.710 Y71.414 E2.4581
G1 X61.805 Y70.234 E2.4975
G1 X61.807 Y70.217 E2.4981
G1 X61.931 Y69.039 E2.5375
G1 X61.935 Y69.011 E2.5384
G1 X62.275 Y66.685 E2.6166
G1 X62.279 Y66.660 E2.6174
G1 X62.493 Y65.490 E2.6570
G1 X62.499 Y65.463 E2.6579
G1 X63.014 Y63.164 E2.7363
G1 X63.023 Y63.129 E2.7375
G1 X63.781 Y60.419 E2.8311
G1 X64.130 Y60.657 F4200
G92 E0
G1 X64.666 Y60.250 E0.0224 F1350
G1 X75.500 Y60.250 E0.3827
G1 X76.100 Y61.049 E0.4160
G1 X75.642 Y62.624 E0.4705
G1 X75.082 Y64.846 E0.5467
G1 X74.850 Y65.944 E0.5840
G1 X74.465 Y68.199 E0.6601
G1 X74.316 Y69.313 E0.6975
G1 X74.103 Y71.589 E0.7735
G1 X74.039 Y72.717 E0.8111
G1 X74.006 Y73.851 E0.8488
G1 X74.006 Y76.138 E0.9249
G1 X74.039 Y77.264 E0.9624
G1 X74.195 Y79.539 E1.0382
G1 X74.465 Y81.797 E1.1139
G1 X74.849 Y84.045 E1.1897
G1 X75.082 Y85.150 E1.2273
G1 X75.344 Y86.251 E1.2649
G1 X76.096 Y88.960 E1.3585
G1 X75.496 Y89.750 E1.3914
G1 X64.666 Y89.750 E1.7517
G1 X64.129 Y89.343 E1.7740
G1 X63.413 Y86.781 E1.8625
G1 X63.407 Y86.756 E1.8634
G1 X62.893 Y84.466 E1.9415
